;FLAVOR:Marlin
;TIME:1188
;Filament used: 0.96203m
;Layer height: 0.2
;MINX:84.4
;MINY:82.95
;MINZ:0.2
;MAXX:135.6
;MAXY:137.05
;MAXZ:13.6
;Generated with Cura_SteamEngine 4.13.1
M140 S50
M105
M190 S50
M104 S215
M105
M109 S215
M82 ;absolute extrusion mode
; Ender 3 Custom Start G-code
M420 S1 ; Activate and Load the UBL System.
G29 J2 ; 4-point Tilt level
G92 E0 ; Reset Extruder
G28 ; Home all axes
G1 Z2.0 F3000 ; Move Z Axis up little to prevent scratching of Heat Bed
G1 X0.1 Y20 Z0.3 F5000.0 ; Move to start position
G1 X0.1 Y200.0 Z0.3 F1500.0 E15 ; Draw the first line
G1 X0.4 Y200.0 Z0.3 F5000.0 ; Move to side a little
G1 X0.4 Y20 Z0.3 F1500.0 E30 ; Draw the second line
G92 E0 ; Reset Extruder
G1 Z2.0 F3000 ; Move Z Axis up little to prevent scratching of Heat Bed
G1 X5 Y20 Z0.3 F5000.0 ; Move over to prevent blob squish
G92 E0
G92 E0
G1 F3600 E-1
;LAYER_COUNT:69
;LAYER:0
M107
M204 S500
M205 X8 Y8
G1 F300 Z0.4
G0 F9000 X87.512 Y88.947 Z0.4
;TYPE:SKIRT
G1 F300 Z0.2
G1 F3600 E0
G1 X87.981 Y88.514 E0.03185
G1 X88.261 Y88.275 E0.05021
G1 X88.68 Y87.941 E0.07694
G1 X89.292 Y87.524 E0.11389
G1 X89.607 Y87.33 E0.13235
G1 X90.313 Y86.943 E0.17252
G1 X90.74 Y86.75 E0.19589
G1 X91.1 Y86.6 E0.21535
G1 X91.857 Y86.328 E0.25548
G1 X92.303 Y86.206 E0.27855
G1 X92.694 Y86.111 E0.29862
G1 X93.484 Y85.96 E0.33875
G1 X93.94 Y85.909 E0.36164
G1 X94.328 Y85.877 E0.38107
G1 X94.994 Y85.85 E0.41432
G1 X97.922 Y85.85 E0.5604
G1 X98.33 Y85.473 E0.58811
G1 X98.551 Y85.284 E0.60262
G1 X99.188 Y84.792 E0.64278
G1 X99.542 Y84.56 E0.66389
G1 X99.806 Y84.396 E0.6794
G1 X100.482 Y84.019 E0.71801
G1 X101.012 Y83.777 E0.74708
G1 X101.288 Y83.663 E0.76198
G1 X102.046 Y83.394 E0.80211
G1 X102.447 Y83.284 E0.82285
G1 X102.744 Y83.211 E0.83811
G1 X103.534 Y83.058 E0.87826
G1 X103.992 Y83.006 E0.90125
G1 X104.31 Y82.979 E0.91718
G1 X104.995 Y82.95 E0.95138
G1 X118.013 Y82.95 E1.60085
G1 X118.686 Y82.978 E1.63446
G1 X118.974 Y83.002 E1.64888
G1 X119.372 Y83.045 E1.66885
G1 X120.216 Y83.201 E1.71167
G1 X120.499 Y83.269 E1.72619
G1 X121.192 Y83.469 E1.76217
G1 X121.789 Y83.694 E1.794
G1 X122.063 Y83.81 E1.80885
G1 X122.549 Y84.035 E1.83557
G1 X123.19 Y84.392 E1.87217
G1 X123.455 Y84.556 E1.88772
G1 X124.117 Y85.013 E1.92785
G1 X124.5 Y85.326 E1.95253
G1 X124.719 Y85.516 E1.96699
G1 X125.155 Y85.922 E1.99672
G1 X125.591 Y86.395 E2.02881
G1 X125.776 Y86.612 E2.04304
G1 X126.147 Y87.081 E2.07287
G1 X126.556 Y87.692 E2.10955
G1 X126.72 Y87.963 E2.12536
G1 X127.102 Y88.672 E2.16554
G1 X127.269 Y89.046 E2.18597
G1 X127.378 Y89.308 E2.20013
G1 X127.649 Y90.065 E2.24024
G1 X127.775 Y90.526 E2.26409
G1 X127.85 Y90.838 E2.28009
G1 X127.999 Y91.629 E2.32025
G1 X128.028 Y91.89 E2.33335
G1 X128.516 Y92.331 E2.36617
G1 X129.087 Y92.902 E2.40645
G1 X130.093 Y94.013 E2.48123
G1 X130.589 Y94.616 E2.52018
G1 X131.474 Y95.806 E2.59417
G1 X131.925 Y96.481 E2.63467
G1 X132.68 Y97.743 E2.70804
G1 X133.051 Y98.438 E2.74735
G1 X133.683 Y99.774 E2.82108
G1 X133.989 Y100.514 E2.86103
G1 X134.484 Y101.9 E2.93446
G1 X134.712 Y102.65 E2.97356
G1 X135.072 Y104.083 E3.04728
G1 X135.228 Y104.865 E3.08706
G1 X135.443 Y106.31 E3.15995
G1 X135.521 Y107.1 E3.19955
G1 X135.59 Y108.488 E3.26888
G1 X135.6 Y108.89 E3.28895
G1 X135.6 Y126.456 E4.16532
G1 X135.572 Y127.13 E4.19897
G1 X135.539 Y127.525 E4.21875
G1 X135.432 Y128.323 E4.25892
G1 X135.344 Y128.739 E4.28013
G1 X135.257 Y129.102 E4.29875
G1 X135.092 Y129.692 E4.32932
G1 X134.83 Y130.399 E4.36693
G1 X134.676 Y130.762 E4.38661
G1 X134.125 Y131.832 E4.44665
G1 X133.935 Y132.142 E4.46479
G1 X133.536 Y132.733 E4.50037
G1 X133.185 Y133.176 E4.52857
G1 X132.946 Y133.457 E4.54697
G1 X132.395 Y134.043 E4.5871
G1 X132.038 Y134.367 E4.61115
G1 X131.722 Y134.637 E4.63189
G1 X131.085 Y135.129 E4.67204
G1 X130.708 Y135.376 E4.69453
G1 X130.393 Y135.57 E4.71299
G1 X129.687 Y135.957 E4.75315
G1 X129.278 Y136.143 E4.77557
G1 X128.918 Y136.294 E4.79505
G1 X128.161 Y136.568 E4.83521
G1 X127.672 Y136.701 E4.86049
G1 X127.288 Y136.793 E4.88019
G1 X126.709 Y136.91 E4.90966
G1 X126.011 Y136.995 E4.94474
G1 X125.629 Y137.025 E4.96386
G1 X124.995 Y137.05 E4.99552
G1 X107.423 Y137.049 E5.87219
G1 X107.022 Y137.039 E5.8922
G1 X105.67 Y136.972 E5.95973
G1 X104.879 Y136.894 E5.99939
G1 X103.414 Y136.676 E6.07328
G1 X102.632 Y136.52 E6.11306
G1 X101.199 Y136.16 E6.18678
G1 X100.447 Y135.932 E6.22598
G1 X99.073 Y135.441 E6.29878
G1 X98.34 Y135.137 E6.33837
G1 X96.989 Y134.499 E6.41291
G1 X96.281 Y134.121 E6.45295
G1 X95.021 Y133.365 E6.52626
G1 X94.369 Y132.93 E6.56536
G1 X93.184 Y132.053 E6.63891
G1 X92.564 Y131.544 E6.67893
G1 X91.467 Y130.55 E6.75278
G1 X90.906 Y129.99 E6.79233
G1 X89.911 Y128.893 E6.86622
G1 X89.41 Y128.283 E6.9056
G1 X88.524 Y127.091 E6.9797
G1 X88.074 Y126.418 E7.02009
G1 X87.317 Y125.153 E7.09364
G1 X86.946 Y124.457 E7.13299
G1 X86.315 Y123.123 E7.20661
G1 X86.007 Y122.378 E7.24683
G1 X85.514 Y120.994 E7.32013
G1 X85.288 Y120.25 E7.35892
G1 X84.928 Y118.817 E7.43263
G1 X84.771 Y118.027 E7.47282
G1 X84.555 Y116.565 E7.54655
G1 X84.478 Y115.783 E7.58575
G1 X84.41 Y114.413 E7.65419
G1 X84.4 Y114.011 E7.67425
G1 X84.4 Y96.444 E8.55067
G1 X84.428 Y95.77 E8.58432
G1 X84.461 Y95.375 E8.6041
G1 X84.568 Y94.577 E8.64427
G1 X84.661 Y94.142 E8.66646
G1 X84.754 Y93.758 E8.68617
G1 X84.982 Y92.987 E8.72628
G1 X85.149 Y92.55 E8.74962
G1 X85.289 Y92.214 E8.76778
G1 X85.532 Y91.685 E8.79683
G1 X85.868 Y91.079 E8.8314
G1 X86.062 Y90.762 E8.84994
G1 X86.464 Y90.166 E8.88581
G1 X86.824 Y89.712 E8.91471
G1 X87.063 Y89.432 E8.93308
G1 X87.512 Y88.947 E8.96605
G0 F9000 X87.937 Y89.372
G1 F3600 X88.371 Y88.971 E8.99553
G1 X88.651 Y88.732 E9.0139
G1 X89.04 Y88.421 E9.03875
G1 X89.607 Y88.035 E9.07297
G1 X89.922 Y87.841 E9.09142
G1 X90.601 Y87.469 E9.13005
G1 X90.97 Y87.304 E9.15022
G1 X91.33 Y87.154 E9.16967
G1 X92.06 Y86.893 E9.20835
G1 X92.444 Y86.789 E9.2282
G1 X92.835 Y86.694 E9.24827
G1 X93.596 Y86.55 E9.28691
G1 X93.99 Y86.507 E9.30669
G1 X94.378 Y86.475 E9.32611
G1 X94.994 Y86.45 E9.35687
G1 X98.176 Y86.45 E9.51562
G1 X98.292 Y86.326 E9.52409
G1 X98.72 Y85.929 E9.55321
G1 X98.941 Y85.74 E9.56772
G1 X99.858 Y85.069 E9.62441
G1 X100.122 Y84.905 E9.63992
G1 X100.75 Y84.556 E9.67576
G1 X101.241 Y84.332 E9.70269
G1 X101.517 Y84.218 E9.71758
G1 X102.59 Y83.867 E9.77391
G1 X102.887 Y83.794 E9.78917
G1 X103.647 Y83.648 E9.82778
G1 X104.042 Y83.604 E9.8476
G1 X104.36 Y83.577 E9.86353
G1 X104.995 Y83.55 E9.89523
G1 X118.013 Y83.55 E10.54471
G1 X118.636 Y83.576 E10.57581
G1 X118.924 Y83.6 E10.59023
G1 X119.294 Y83.64 E10.6088
G1 X120.076 Y83.785 E10.64848
G1 X120.359 Y83.853 E10.663
G1 X121.003 Y84.038 E10.69643
G1 X121.555 Y84.246 E10.72586
G1 X121.829 Y84.362 E10.7407
G1 X122.281 Y84.572 E10.76557
G1 X122.874 Y84.902 E10.79942
G1 X123.139 Y85.066 E10.81497
G1 X123.775 Y85.507 E10.85358
G1 X124.107 Y85.779 E10.875
G1 X124.326 Y85.969 E10.88946
G1 X124.73 Y86.347 E10.91706
G1 X125.134 Y86.784 E10.94676
G1 X125.319 Y87.001 E10.96098
G1 X125.664 Y87.437 E10.98872
G1 X126.043 Y88.003 E11.0227
G1 X126.207 Y88.274 E11.03851
G1 X126.715 Y89.276 E11.09456
G1 X126.824 Y89.538 E11.10871
G1 X127.084 Y90.267 E11.14733
G1 X127.191 Y90.666 E11.16794
G1 X127.266 Y90.978 E11.18395
G1 X127.446 Y92.084 E11.23985
G1 X127.454 Y92.179 E11.24461
G1 X128.114 Y92.776 E11.28901
G1 X128.643 Y93.305 E11.32633
G1 X129.649 Y94.416 E11.4011
G1 X130.107 Y94.974 E11.43712
G1 X130.992 Y96.164 E11.51111
G1 X131.41 Y96.79 E11.54866
G1 X132.165 Y98.052 E11.62203
G1 X132.509 Y98.695 E11.65841
G1 X133.141 Y100.031 E11.73215
G1 X133.424 Y100.715 E11.76908
G1 X133.919 Y102.101 E11.8425
G1 X134.13 Y102.797 E11.87879
G1 X134.49 Y104.23 E11.9525
G1 X134.634 Y104.953 E11.98928
G1 X134.849 Y106.398 E12.06216
G1 X134.922 Y107.13 E12.09887
G1 X134.991 Y108.518 E12.1682
G1 X135 Y108.89 E12.18676
G1 X135 Y126.456 E13.06313
G1 X134.974 Y127.08 E13.09429
G1 X134.941 Y127.475 E13.11407
G1 X134.76 Y128.599 E13.17087
G1 X134.673 Y128.962 E13.18949
G1 X134.52 Y129.51 E13.21788
G1 X134.277 Y130.165 E13.25273
G1 X134.123 Y130.528 E13.2724
G1 X133.614 Y131.518 E13.32794
G1 X133.424 Y131.828 E13.34608
G1 X133.053 Y132.377 E13.37914
G1 X132.728 Y132.787 E13.40524
G1 X132.489 Y133.068 E13.42364
G1 X131.958 Y133.631 E13.46225
G1 X131.648 Y133.911 E13.48309
G1 X131.332 Y134.181 E13.50383
G1 X130.718 Y134.653 E13.54247
G1 X130.393 Y134.865 E13.56183
G1 X130.078 Y135.059 E13.58028
G1 X129.046 Y135.589 E13.63816
G1 X128.686 Y135.74 E13.65764
G1 X127.957 Y136.002 E13.69629
G1 X127.532 Y136.118 E13.71827
G1 X127.148 Y136.21 E13.73797
G1 X126.61 Y136.318 E13.76534
G1 X125.964 Y136.397 E13.79781
G1 X125.582 Y136.427 E13.81693
G1 X124.995 Y136.45 E13.84624
G1 X107.423 Y136.449 E14.72291
G1 X107.052 Y136.44 E14.74142
G1 X105.7 Y136.373 E14.80896
G1 X104.967 Y136.3 E14.84571
G1 X103.502 Y136.082 E14.9196
G1 X102.779 Y135.938 E14.95638
G1 X101.346 Y135.578 E15.03009
G1 X100.649 Y135.367 E15.06643
G1 X99.275 Y134.876 E15.13922
G1 X98.596 Y134.595 E15.17588
G1 X97.245 Y133.957 E15.25042
G1 X96.589 Y133.606 E15.28754
G1 X95.329 Y132.85 E15.36085
G1 X94.726 Y132.448 E15.397
G1 X93.541 Y131.571 E15.47055
G1 X92.967 Y131.1 E15.5076
G1 X91.87 Y130.106 E15.58145
G1 X91.351 Y129.587 E15.61807
G1 X90.356 Y128.49 E15.69196
G1 X89.892 Y127.925 E15.72844
G1 X89.006 Y126.733 E15.80253
G1 X88.589 Y126.11 E15.83993
G1 X87.832 Y124.845 E15.91348
G1 X87.488 Y124.201 E15.94991
G1 X86.857 Y122.867 E16.02353
G1 X86.572 Y122.177 E16.06078
G1 X86.079 Y120.793 E16.13407
G1 X85.87 Y120.103 E16.17004
G1 X85.51 Y118.67 E16.24376
G1 X85.365 Y117.939 E16.28094
G1 X85.149 Y116.477 E16.35467
G1 X85.077 Y115.753 E16.39097
G1 X85.009 Y114.383 E16.4594
G1 X85 Y114.011 E16.47797
G1 X85 Y96.444 E17.35439
G1 X85.026 Y95.82 E17.38555
G1 X85.059 Y95.425 E17.40532
G1 X85.244 Y94.284 E17.46299
G1 X85.337 Y93.9 E17.4827
G1 X85.558 Y93.157 E17.52137
G1 X85.703 Y92.78 E17.54153
G1 X85.843 Y92.444 E17.55969
G1 X86.069 Y91.953 E17.58665
G1 X86.38 Y91.392 E17.61865
G1 X86.574 Y91.075 E17.6372
G1 X86.947 Y90.522 E17.67047
G1 X87.281 Y90.102 E17.69725
G1 X87.52 Y89.822 E17.71561
G1 X87.937 Y89.372 E17.74622
G0 F9000 X88.361 Y89.796
G1 F3600 X88.76 Y89.427 E17.77333
G1 X89.04 Y89.188 E17.7917
G1 X89.4 Y88.901 E17.81467
G1 X89.922 Y88.546 E17.84616
G1 X90.237 Y88.352 E17.86462
G1 X91.201 Y87.858 E17.91866
G1 X91.561 Y87.708 E17.93812
G1 X92.586 Y87.372 E17.99193
G1 X92.977 Y87.277 E18.01201
G1 X94.039 Y87.105 E18.06568
G1 X94.427 Y87.073 E18.08511
G1 X94.994 Y87.05 E18.11342
G1 X98.438 Y87.05 E18.28524
G1 X98.716 Y86.75 E18.30564
G1 X99.11 Y86.385 E18.33244
G1 X99.331 Y86.196 E18.34695
G1 X100.175 Y85.579 E18.39911
G1 X100.439 Y85.415 E18.41461
G1 X101.018 Y85.092 E18.44769
G1 X101.47 Y84.887 E18.47245
G1 X101.746 Y84.773 E18.48735
G1 X102.733 Y84.449 E18.53918
G1 X103.03 Y84.376 E18.55443
G1 X104.093 Y84.202 E18.60817
G1 X104.411 Y84.175 E18.6241
G1 X104.995 Y84.15 E18.65326
G1 X118.013 Y84.15 E19.30273
G1 X118.586 Y84.174 E19.33134
G1 X118.874 Y84.198 E19.34576
G1 X119.216 Y84.235 E19.36292
G1 X119.936 Y84.368 E19.39945
G1 X120.219 Y84.436 E19.41397
G1 X120.813 Y84.607 E19.44481
G1 X121.321 Y84.799 E19.4719
G1 X121.595 Y84.915 E19.48675
G1 X122.013 Y85.108 E19.50972
G1 X122.558 Y85.413 E19.54088
G1 X122.823 Y85.577 E19.55642
G1 X123.714 Y86.232 E19.61159
G1 X123.933 Y86.422 E19.62606
G1 X124.306 Y86.771 E19.65154
G1 X124.678 Y87.174 E19.67891
G1 X124.863 Y87.391 E19.69313
G1 X125.181 Y87.793 E19.7187
G1 X125.529 Y88.314 E19.74996
G1 X125.693 Y88.585 E19.76577
G1 X126.161 Y89.507 E19.81735
G1 X126.27 Y89.769 E19.83151
G1 X126.608 Y90.806 E19.88592
G1 X126.683 Y91.118 E19.90193
G1 X126.848 Y92.136 E19.95338
G1 X126.876 Y92.466 E19.96991
G1 X127.711 Y93.221 E20.02607
G1 X128.198 Y93.708 E20.06043
G1 X129.204 Y94.819 E20.1352
G1 X129.626 Y95.332 E20.16834
G1 X130.511 Y96.522 E20.24233
G1 X130.895 Y97.098 E20.27687
G1 X131.65 Y98.36 E20.35024
G1 X131.966 Y98.951 E20.38367
G1 X132.598 Y100.287 E20.45741
G1 X132.859 Y100.917 E20.49143
G1 X133.354 Y102.303 E20.56486
G1 X133.548 Y102.943 E20.59822
G1 X133.908 Y104.376 E20.67193
G1 X134.041 Y105.042 E20.70582
G1 X134.256 Y106.487 E20.7787
G1 X134.322 Y107.159 E20.81239
G1 X134.391 Y108.547 E20.88172
G1 X134.4 Y108.89 E20.89884
G1 X134.4 Y126.456 E21.77521
G1 X134.376 Y127.03 E21.80387
G1 X134.343 Y127.425 E21.82365
G1 X134.177 Y128.459 E21.8759
G1 X134.09 Y128.822 E21.89452
G1 X133.948 Y129.328 E21.92074
G1 X133.725 Y129.931 E21.95281
G1 X133.571 Y130.294 E21.97249
G1 X133.102 Y131.205 E22.02361
G1 X132.912 Y131.515 E22.04175
G1 X132.57 Y132.021 E22.07222
G1 X132.271 Y132.398 E22.09622
G1 X132.032 Y132.679 E22.11463
G1 X131.258 Y133.455 E22.16931
G1 X130.942 Y133.725 E22.19004
G1 X130.078 Y134.354 E22.24336
G1 X129.763 Y134.548 E22.26182
G1 X128.814 Y135.036 E22.31506
G1 X128.454 Y135.187 E22.33453
G1 X127.755 Y135.437 E22.37157
G1 X127.393 Y135.534 E22.39027
G1 X127.009 Y135.626 E22.40997
G1 X126.511 Y135.726 E22.43531
G1 X125.917 Y135.799 E22.46517
G1 X125.535 Y135.829 E22.48428
G1 X124.995 Y135.85 E22.51124
G1 X107.423 Y135.849 E23.38791
G1 X107.081 Y135.841 E23.40498
G1 X105.729 Y135.774 E23.47252
G1 X105.055 Y135.707 E23.50631
G1 X103.59 Y135.489 E23.5802
G1 X102.925 Y135.356 E23.61403
G1 X101.492 Y134.996 E23.68775
G1 X100.851 Y134.802 E23.72116
G1 X99.477 Y134.311 E23.79396
G1 X98.853 Y134.052 E23.82766
G1 X97.502 Y133.414 E23.9022
G1 X96.898 Y133.092 E23.93635
G1 X95.638 Y132.336 E24.00966
G1 X95.083 Y131.965 E24.04296
G1 X93.898 Y131.088 E24.11651
G1 X93.37 Y130.655 E24.15058
G1 X92.273 Y129.661 E24.22444
G1 X91.795 Y129.184 E24.25813
G1 X90.8 Y128.087 E24.33202
G1 X90.373 Y127.567 E24.36558
G1 X89.487 Y126.375 E24.43968
G1 X89.104 Y125.802 E24.47407
G1 X88.347 Y124.537 E24.54762
G1 X88.031 Y123.944 E24.58114
G1 X87.4 Y122.61 E24.65476
G1 X87.137 Y121.975 E24.68905
G1 X86.644 Y120.591 E24.76235
G1 X86.452 Y119.957 E24.7954
G1 X86.092 Y118.524 E24.86911
G1 X85.958 Y117.851 E24.90335
G1 X85.742 Y116.389 E24.97708
G1 X85.676 Y115.723 E25.01047
G1 X85.608 Y114.353 E25.0789
G1 X85.6 Y114.011 E25.09597
G1 X85.6 Y96.444 E25.97239
G1 X85.624 Y95.87 E26.00105
G1 X85.657 Y95.475 E26.02083
G1 X85.827 Y94.425 E26.0739
G1 X85.92 Y94.041 E26.09361
G1 X86.257 Y93.011 E26.14767
G1 X86.397 Y92.675 E26.16583
G1 X86.605 Y92.221 E26.19075
G1 X86.892 Y91.705 E26.22021
G1 X87.086 Y91.388 E26.23875
G1 X87.43 Y90.878 E26.26944
G1 X87.737 Y90.491 E26.29408
G1 X87.976 Y90.211 E26.31245
G1 X88.361 Y89.796 E26.34069
G0 F9000 X88.785 Y90.22
G1 F3600 X89.15 Y89.883 E26.36548
G1 X89.43 Y89.644 E26.38384
G1 X89.76 Y89.381 E26.4049
G1 X90.236 Y89.057 E26.43362
G1 X90.551 Y88.863 E26.45208
G1 X91.432 Y88.412 E26.50146
G1 X91.792 Y88.262 E26.52091
G1 X92.728 Y87.955 E26.57006
G1 X93.119 Y87.86 E26.59013
G1 X94.088 Y87.703 E26.63911
G1 X94.476 Y87.671 E26.65853
G1 X94.994 Y87.65 E26.68439
G1 X98.706 Y87.65 E26.86959
G1 X98.783 Y87.56 E26.8755
G1 X99.14 Y87.174 E26.90173
G1 X99.5 Y86.841 E26.92619
G1 X99.721 Y86.652 E26.9407
G1 X100.492 Y86.089 E26.98833
G1 X100.756 Y85.925 E27.00384
G1 X101.287 Y85.629 E27.03417
G1 X101.699 Y85.441 E27.05676
G1 X101.975 Y85.327 E27.07166
G1 X102.876 Y85.032 E27.11896
G1 X103.173 Y84.959 E27.13422
G1 X104.144 Y84.8 E27.1833
G1 X104.462 Y84.773 E27.19923
G1 X104.995 Y84.75 E27.22584
G1 X118.013 Y84.75 E27.87531
G1 X118.536 Y84.772 E27.90143
G1 X118.824 Y84.796 E27.91585
G1 X119.139 Y84.83 E27.93165
G1 X119.796 Y84.951 E27.96498
G1 X120.079 Y85.019 E27.9795
G1 X120.623 Y85.176 E28.00775
G1 X121.087 Y85.351 E28.03249
G1 X121.361 Y85.467 E28.04734
G1 X121.744 Y85.645 E28.06841
G1 X122.242 Y85.923 E28.09686
G1 X122.507 Y86.087 E28.11241
G1 X123.321 Y86.685 E28.1628
G1 X123.54 Y86.875 E28.17727
G1 X123.882 Y87.195 E28.20063
G1 X124.221 Y87.563 E28.22559
G1 X124.406 Y87.78 E28.23982
G1 X124.698 Y88.149 E28.2633
G1 X125.016 Y88.624 E28.29182
G1 X125.18 Y88.895 E28.30762
G1 X125.607 Y89.737 E28.35472
G1 X125.716 Y89.999 E28.36888
G1 X126.025 Y90.947 E28.41862
G1 X126.1 Y91.259 E28.43463
G1 X126.251 Y92.188 E28.48159
G1 X126.278 Y92.5 E28.49721
G1 X126.288 Y92.743 E28.50934
G1 X127.309 Y93.666 E28.57801
